X: 1605
T: Rast Seyir
C: Erol Bingöl
O: Turkey
F: http://compmusic.upf.edu/node/140
N: rast--seyir--yuruksemai--1--erol_bingol
N: makam= rast
N: form= seyir
N: usul= yuruksemai = 6/8
M: 6/8
L: 1/16
K: C _1/4B ^f  
Q: 1/4=60
%%MIDI tuningsystem comma53
G4G2A2 B3AdcBA G8  | G3AB2c2 d2e2dcBc d8  | 
w:   |   | 
d3ef2g2 f2ede2f2 g8  | g2fef2g2 a2g2=f2e2 d3cB4  | 
w:   |   | 
c3de3d c3BcBBA A8  | B3cd2e2 d2c2B2A2 B3AG4  | 
w:   |   | 
A2BcB2A2 A2G2G2F2 F3ED4  | G4G2A2 B2G2A2F2 G8  | |


